icons/folder-block.svg

<svg xmlns="http://www.w3.org/2000/svg" viewBox="0 0 24 24" fill="currentColor">
  <path d="M3.75 4.20001c0-.28578.16423-.45001.45001-.45001H12.3c.7315 0 1.446.45006 1.7147 1.0546l.0093.02101.7407 1.42439H3.75V4.20001ZM2.25 6.25V4.20001C2.25 3.0858 3.0858 2.25 4.20001 2.25H12.3c1.2605 0 2.5379.74054 3.0753 1.9229l1.08 2.0771H17c2.6142 0 4.75 2.13579 4.75 4.75v6c0 .4142-.3358.75-.75.75s-.75-.3358-.75-.75v-6c0-1.78579-1.4642-3.25-3.25-3.25H3.75V17c0 1.7858 1.46421 3.25 3.25 3.25.41421 0 .75.3358.75.75s-.33579.75-.75.75c-2.61421 0-4.75-2.1358-4.75-4.75V6.25Zm12.5354 8.8042c-.9944-.5893-2.3277-.451-3.2551.4763l-.0098.0098-.0102.0095c-.892.8282-1.0602 2.155-.4419 3.2214l3.717-3.717Zm-2.6686 4.79c1.0185.5954 2.3994.444 3.2336-.4543l.0189-.0204.0203-.0189c.892-.8282 1.0602-2.1549.442-3.2213l-3.7148 3.7149Zm-1.6374-5.3841c1.6789-1.6686 4.3555-1.6977 5.9607.0196 1.6653 1.6756 1.6975 4.345-.0095 5.9512-1.5968 1.6958-4.3787 1.6924-5.9707-.0101-1.66865-1.6789-1.69771-4.3555.0195-5.9607Z"/>
</svg>

<svg width="24" height="24" viewBox="0 0 24 24" fill="none" xmlns="http://www.w3.org/2000/svg">
<path fill-rule="evenodd" clip-rule="evenodd" d="M3.75 4.20001C3.75 3.91423 3.91423 3.75 4.20001 3.75H12.3C13.0315 3.75 13.746 4.20006 14.0147 4.8046L14.024 4.82561L14.7647 6.25H3.75V4.20001ZM2.25 6.25V4.20001C2.25 3.0858 3.0858 2.25 4.20001 2.25H12.3C13.5605 2.25 14.8379 2.99054 15.3753 4.1729L16.4553 6.25H17C19.6142 6.25 21.75 8.38579 21.75 11V17C21.75 17.4142 21.4142 17.75 21 17.75C20.5858 17.75 20.25 17.4142 20.25 17V11C20.25 9.21421 18.7858 7.75 17 7.75H3.75V17C3.75 18.7858 5.21421 20.25 7 20.25C7.41421 20.25 7.75 20.5858 7.75 21C7.75 21.4142 7.41421 21.75 7 21.75C4.38579 21.75 2.25 19.6142 2.25 17V7.75V6.25ZM14.7854 15.0542C13.791 14.4649 12.4577 14.6032 11.5303 15.5305L11.5205 15.5403L11.5103 15.5498C10.6183 16.378 10.4501 17.7048 11.0684 18.7712L14.7854 15.0542ZM12.1168 19.8442C13.1353 20.4396 14.5162 20.2882 15.3504 19.3899L15.3693 19.3695L15.3896 19.3506C16.2816 18.5224 16.4498 17.1957 15.8316 16.1293L12.1168 19.8442ZM10.4794 14.4601C12.1583 12.7915 14.8349 12.7624 16.4401 14.4797C18.1054 16.1553 18.1376 18.8247 16.4306 20.4309C14.8338 22.1267 12.0519 22.1233 10.4599 20.4208C8.79125 18.7419 8.76219 16.0653 10.4794 14.4601Z" fill="black"/>
</svg>
